assets/images/hashtag.svg

<svg xmlns="http://www.w3.org/2000/svg" xml:space="preserve" viewBox="0 0 20 20"><path d="M7.6 1c-.2 0-.5.2-.5.4l-.6 3.2c0 .2-.2.4-.4.4H1.5c-.3 0-.5.2-.5.5v2c0 .3.2.5.5.5h3.8c.3 0 .5.3.5.6l-.5 3c0 .2-.2.4-.5.4H1.5c-.3 0-.5.2-.5.5v2c0 .3.2.5.5.5h2.6c.3 0 .5.3.5.6l-.5 2.8c-.1.3.2.6.5.6h2.2c.2 0 .5-.2.5-.4l.6-3.2c0-.2.2-.4.5-.4h2.5c.3 0 .5.3.5.6l-.5 2.8c-.1.3.2.6.5.6h2.2c.2 0 .5-.2.5-.4l.6-3.2c0-.2.2-.4.5-.4h3.6c.3 0 .5-.2.5-.5v-2c0-.3-.2-.5-.5-.5H16c-.3 0-.5-.3-.5-.6l.5-3c0-.2.2-.4.5-.4h2.3s.2-.2.2-.5v-2c0-.3-.2-.5-.5-.5h-1.6c-.3 0-.5-.3-.5-.6l.5-2.8c.1-.3-.2-.6-.5-.6h-2.2c-.2 0-.5.2-.5.4l-.6 3.2c0 .2-.2.4-.5.4h-2.5c-.2 0-.4-.3-.4-.6l.5-2.8c.1-.3-.1-.6-.4-.6zm3.9 11c.2 0 .5-.2.5-.4l.5-3c0-.3-.2-.6-.5-.6H9.5c-.2 0-.4.2-.5.4l-.5 3c0 .3.2.6.5.6z" style="fill-rule:evenodd;clip-rule:evenodd"/></svg>

<svg xmlns="http://www.w3.org/2000/svg" xmlns:xlink="http://www.w3.org/1999/xlink" id="Layer_1" x="0" y="0" version="1.1" viewBox="0 0 20 20" style="enable-background:new 0 0 20 20" xml:space="preserve"><style type="text/css">.st0{fill-rule:evenodd;clip-rule:evenodd}</style><path d="M7.6,1C7.4,1,7.1,1.2,7.1,1.4L6.5,4.6C6.5,4.8,6.3,5,6.1,5H1.5C1.2,5,1,5.2,1,5.5v2C1,7.8,1.2,8,1.5,8h3.8	c0.3,0,0.5,0.3,0.5,0.6l-0.5,3c0,0.2-0.2,0.4-0.5,0.4H1.5C1.2,12,1,12.2,1,12.5v2C1,14.8,1.2,15,1.5,15h2.6c0.3,0,0.5,0.3,0.5,0.6	l-0.5,2.8C4,18.7,4.3,19,4.6,19h2.2c0.2,0,0.5-0.2,0.5-0.4l0.6-3.2c0-0.2,0.2-0.4,0.5-0.4h2.5c0.3,0,0.5,0.3,0.5,0.6l-0.5,2.8	c-0.1,0.3,0.2,0.6,0.5,0.6h2.2c0.2,0,0.5-0.2,0.5-0.4l0.6-3.2c0-0.2,0.2-0.4,0.5-0.4h3.6c0.3,0,0.5-0.2,0.5-0.5v-2	c0-0.3-0.2-0.5-0.5-0.5h-2.8c-0.3,0-0.5-0.3-0.5-0.6l0.5-3c0-0.2,0.2-0.4,0.5-0.4h2.3C18.8,8,19,7.8,19,7.5v-2C19,5.2,18.8,5,18.5,5	h-1.6c-0.3,0-0.5-0.3-0.5-0.6l0.5-2.8C17,1.3,16.7,1,16.4,1h-2.2c-0.2,0-0.5,0.2-0.5,0.4l-0.6,3.2c0,0.2-0.2,0.4-0.5,0.4h-2.5	C9.9,5,9.7,4.7,9.7,4.4l0.5-2.8C10.3,1.3,10.1,1,9.8,1H7.6z M11.5,12c0.2,0,0.5-0.2,0.5-0.4l0.5-3C12.5,8.3,12.3,8,12,8H9.5	C9.3,8,9.1,8.2,9,8.4l-0.5,3C8.5,11.7,8.7,12,9,12H11.5z" class="st0"/></svg>
